!!!COM: Bach, Johann Sebastian
!!!CDT: 1685/3//-1750/7/28/
!!!OTL@@DE: Nun danket alle Gott
!!!OTL@EN:  From the depths of my heart
!!!AGN: 4-Part Chorale
!!!SCT: BH 032
!!!SCT: BWV 386
!!!YEC: Copyright 1994, David Huron
!!!YEC: Changes/Additions 2001 by Craig Stuart Sapp
!!!YEN: United States of America
!!!SMA: 371 Bach Chorales, edited by Ludwig Erk, C.F. Peters
!!!PDT: 1850, 1865
!!!ONB: Harmony and Root analysis done manually
**kern	**kern	**kern	**kern	**root	**harm
!bass	!tenor	!alto	!soprno	!	!
*Iorgan	*Iorgan	*Iorgan	*Iorgan	*Iorgan	*
*M4/4	*M4/4	*M4/4	*M4/4	*M4/4	*M4/4
*met(C)	*met(C)	*met(C)	*met(C)	*met(C)	*met(C)
*MM60	*MM60	*MM60	*MM60	*MM60	*MM60
*k[f#c#g#]	*k[f#c#g#]	*k[f#c#g#]	*k[f#c#g#]	*k[f#c#g#]	*k[f#c#g#]
*A:	*A:	*A:	*A:	*A:	*A:
*>[A,A,B]	*>[A,A,B]	*>[A,A,B]	*>[A,A,B]	*>[A,A,B]	*>[A,A,B]
*>A	*>A	*>A	*>A	*>A	*>A
4AA	4c#	4a	4ee	4AA	I
=1	=1	=1	=1	=1	=1
8A	4c#	4a	4ee	4AA	I
8B	.	.	.	.	.
8c#	4c#	4a	4ee	4AA	Ib
8A	.	.	.	.	.
8D	4d	4a	4ff#	4DD	IV
8E	.	.	.	.	.
8F#	4d	4a	4ff#	4DD	IVb
8D	.	.	.	.	.
=2	=2	=2	=2	=2	=2
2A;	2c#;	2a;	2ee;	2AA;	I;
4r	4r	4r	4r	4r	r
4A	4f#	4a	4cc#	4FF#	vib
=3	=3	=3	=3	=3	=3
4G#	4e	4b	4dd	4EE	V7b
4A	4e	4a	4cc#	4AA	I
8E	4e	4g#	4b	4EE	V7
8D	.	.	.	.	.
8C#	4e	4a	8.cc#	4AA	Ib
8AA	.	.	.	.	.
.	.	.	16dd	.	.
=4	=4	=4	=4	=4	=4
2E	8e	8a	2b	2EE	V7
.	16d	8f#	.	.	.
.	16c#	.	.	.	.
.	4d	4g#	.	.	.
4AA;	4c#;	4e;	4a;	4AA;	I;
=:|!	=:|!	=:|!	=:|!	=:|!	=:|!
*>B	*>B	*>B	*>B	*>B	*>B
4E	8B	8g#	4b	4EE	V
.	8A	8f#	.	.	.
=5	=5	=5	=5	=5	=5
8E	8G#	4e	4b	4EE	V
8F#	8A	.	.	.	.
8G#	4B	4e	4b	4EE	Vb
8E	.	.	.	.	.
8AA	8B	4e	4cc#	4AA	I
8BB	16A	.	.	.	.
.	16G#	.	.	.	.
8C#	4A	4e	4cc#	4AA	Ib
8AA	.	.	.	.	.
!!linebreak: 2
=6	=6	=6	=6	=6	=6
2EE;	2G#;	2e;	2b;	2EE;	V;
4r	4r	4r	4r	4r	r
4E	4e	4g#	4b	4EE	V
=7	=7	=7	=7	=7	=7
8A	4e	4a	8cc#	4AA	I
8B	.	.	8dd#	.	.
8c#	4e	4g#	4ee	4CC#	iii
8G#	.	.	.	.	.
8A	4c#	4f#	4ee	4FF#	vi7b
8F#	.	.	.	.	.
8B	4B	4f#	4dd#	4BB	V/V
8BB	.	.	.	.	.
=8	=8	=8	=8	=8	=8
2E;	2B;	2g#;	2ee;	2EE;	V;
4r	4r	4r	4r	4r	r
4AA	4c#	4a	4ee	4AA	I
=9	=9	=9	=9	=9	=9
8D	4d	8a	4ff#	4DD	IV
8C#	.	8b	.	.	.
8BB	4c#	4cc#	4ee	4AA#	vii/ii
8AA#	.	.	.	.	.
8BB	4f#	8cc#	4dd	4BB	ii
8D	.	4b	.	.	.
8E	8gn	.	4cc#	8CC#	iiio7b
8F#	8f#	8a#	.	8FF#	V/ii
=10	=10	=10	=10	=10	=10
2BB;	2f#;	2b;	2dd;	2BB;	ii;
4r	4r	4r	4r	4r	r
8C#	4e	4a	4cc#	4AA	Ib
8D	.	.	.	.	.
=11	=11	=11	=11	=11	=11
4E	4e	4g#	4b	4EE	V
8A	8e	4a	8.cc#	8AA	I
8F#	8f#	.	.	8FF#	vi
.	.	.	16dd	.	.
8D	8f#	4a	4.b	4BB	ii7b
8BB	8d	.	.	.	.
8E	8.B	4g#	.	4EE	V
8EE	.	.	8a	.	.
.	16e	.	.	.	.
=12	=12	=12	=12	=12	=12
2.AA;	2.c#;	2.e;	2.a;	2.AA;	I;
==	==	==	==	==	==
*-	*-	*-	*-	*-	*-
!!chor2scor: -l 2 -s 0.6 -o %b.pmx
